svg/u1f68c.svg

<svg viewBox="0 0 128 128" xmlns="http://www.w3.org/2000/svg">
  <path d="M47.27,49.57c0,0,0.28-1.88,0.45-3.15c0.17-1.26,0.51-5.46,2.7-5.71c2.19-0.25,27.82,0,29.85,0 c2.02,0,2.53,2.19,2.7,3.37c0.17,1.18,0.63,5.75,0.45,5.75C82.73,49.84,47.27,49.57,47.27,49.57z" fill="#3E717A"/>
  <path d="M40.63,48.3c0,0-1.18-2.28-2.02-2.78c-0.84-0.51-20.99-1.98-26.54,6.55S5.26,76.14,4.74,82.99 c-0.52,6.85-0.52,11.37-0.52,11.37l68.37,2.97l52.61-2.71c0,0-0.49-21.14-0.62-26.7c-0.13-5.56-0.29-14.79-3.26-17.11 s-4.78-1.81-9.95-1.94C106.2,48.74,40.63,48.3,40.63,48.3z" fill="#6BA4AB"/>
  <path d="M4.24,93.32l121.08,0.45c0,0,0.45,15.67,0.45,17.12c0,1.45-0.45,3.13-2.69,3.25 c-2.24,0.11-98.03,0.78-98.03,0.78l-20.37-1.01c0,0-2.35-0.9-2.91-2.91s0.67-12.53,0.67-12.53L4.24,93.32z" fill="#E0E0E0"/>
  <path d="M1.73,105.73c0,0,3.11,0.27,3.65-0.61c1.03-1.67,1.49-9.39,0.68-10.27 c-0.52-0.57-2.32-0.32-2.32-0.32s-1.09,2.37-1.6,5.46C1.6,103.3,1.73,105.73,1.73,105.73z" fill="#FF8D02"/>
  <path d="M31.94,114.93c0,0,0.39-3.63-0.28-6.87c-0.68-3.24-3.15-10.43-13.29-10.56 c-9.33-0.12-12.91,7.37-13.58,11.08c-0.58,3.21-0.09,5.33-0.09,5.33s4.68,0.75,13.47,1.09S31.94,114.93,31.94,114.93z" fill="#868486"/>
  <path d="M85.76,114.52c0,0,0.13-6.25,1.73-9.44c2.21-4.41,5.63-7.05,12.12-7.05s10.49,3.81,12,6.46 c2.6,4.56,1.76,9.7,1.76,9.7L85.76,114.52z" fill="#868486"/>
  <path d="M6.44,112.82c0.07,4.56,3.71,11.14,11.64,11.19s12.04-6.02,11.79-12.24 c-0.25-6.32-5.17-10.79-12.24-10.58C11,101.37,6.34,106.49,6.44,112.82z" fill="#4E433D"/>
  <path d="M11.95,112.43c0.04,2.41,1.99,5.87,6.25,5.9c4.26,0.03,6.32-2.99,6.19-6.27 c-0.14-3.33-2.86-5.82-6.43-5.77C14.41,106.35,11.9,109.1,11.95,112.43z" fill="#B2B1B2"/>
  <path d="M88.17,112.9c0.07,4.53,3.63,11.05,11.39,11.1s11.78-5.97,11.54-12.15 c-0.25-6.27-5.06-10.7-11.98-10.5C92.64,101.53,88.08,106.62,88.17,112.9z" fill="#4E433D"/>
  <path d="M93.35,112.54c0.04,2.41,1.99,5.87,6.25,5.9c4.26,0.03,6.32-2.99,6.19-6.27 c-0.14-3.33-2.86-5.82-6.43-5.77C95.8,106.45,93.3,109.2,93.35,112.54z" fill="#B2B1B2"/>
  <path d="M52.99,88.49c0,0,61.21,0.12,63.12,0c1.91-0.12,4.42-2.87,4.54-6.81c0.12-3.94-0.48-20.56-0.72-22.47 c-0.24-1.91-1.42-5.74-7.29-5.74c-4.66,0-90.14-0.48-92.29-0.48s-5.36,1.27-6.79,4.73S9.5,67.55,8.87,74.73 C8.23,82.11,8.28,86.1,8.76,88.01c0.48,1.91,0.96,4.06,5.38,4.06c3.59,0,20.68,0,20.68,0l0.25,22.74l17.91-0.08L52.99,88.49z" fill="#454C52"/>
  <path d="M125.19,92.74c0,0-2.51-0.41-3.14,0.96s-0.76,10.53,0.18,10.93s3.38,0.09,3.38,0.09 s0.08-3.62-0.11-6.25C125.25,94.98,125.19,92.74,125.19,92.74z" fill="#FF2A23"/>
  <path d="M118.87,93.74C118.87,93.74,118.86,93.74,118.87,93.74l-6.85-0.04c-0.69,0-1.25-0.57-1.24-1.26 c0-0.69,0.56-1.24,1.25-1.24c0,0,0,0,0.01,0l6.84,0.04c0.69,0,1.25,0.57,1.24,1.26C120.11,93.18,119.56,93.74,118.87,93.74z" fill="#454C52"/>
  <path d="M118.78,98.25C118.78,98.25,118.78,98.25,118.78,98.25l-6.85-0.04c-0.69,0-1.25-0.57-1.24-1.26 c0-0.69,0.56-1.24,1.25-1.24c0,0,0,0,0.01,0l6.84,0.04c0.69,0,1.25,0.57,1.24,1.26C120.03,97.69,119.47,98.25,118.78,98.25z" fill="#454C52"/>
  <path d="M118.74,102.78C118.73,102.78,118.73,102.78,118.74,102.78l-6.85-0.04c-0.69,0-1.25-0.57-1.24-1.26 c0-0.69,0.56-1.24,1.25-1.24c0,0,0,0,0.01,0l6.84,0.04c0.69,0,1.25,0.57,1.24,1.26C119.98,102.23,119.42,102.78,118.74,102.78z" fill="#454C52"/>
  <path d="M34.54,58.98c0,0-15.02,0-16.23,0.09c-1.21,0.09-2.39,1.57-3.43,5.19c-1.1,3.81-3.06,11.04-2.6,20.03 c0.09,1.67,1.67,2.13,2.97,2.13c1.3,0,19.38,0,19.38,0L34.54,58.98z" fill="#AFE3FB"/>
  <path d="M18.22,77.81l-0.28,11.68c0,0,4.91,0.93,5.75-0.37c0.83-1.3,0.84-9.45,0.19-10.48 C22.58,76.6,18.22,77.81,18.22,77.81z" fill="#868486"/>
  <path d="M38.06,61.86h11.87v49.7H38.16C38.16,111.56,38.06,61.49,38.06,61.86z" fill="#AFE3FB"/>
  <polygon points="53.64,82.44 53.64,59.17 84.24,59.17 84.24,82.35 " fill="#AFE3FB"/>
  <path d="M87.95,59.26v23c0,0,23,0,25.59,0s3.54-1.55,3.82-4.33c0.28-2.78-0.04-13.3-0.29-15.23 c-0.28-2.13-1.66-3.2-4.1-3.31C110.41,59.27,88.05,59.17,87.95,59.26z" fill="#AFE3FB"/>
</svg>

<svg viewBox="0 0 128 128" xmlns="http://www.w3.org/2000/svg">
  <defs/>
  <path d="M47.27,49.57 C47.27,49.57 47.55,47.69 47.72,46.42 C47.89,45.16 48.23,40.96 50.42,40.71 C52.61,40.46 78.24,40.71 80.27,40.71 C82.29,40.71 82.8,42.9 82.97,44.08 C83.14,45.26 83.6,49.83 83.42,49.83 C82.73,49.84 47.27,49.57 47.27,49.57 Z" fill="#3E717A"/>
  <path d="M40.63,48.3 C40.63,48.3 39.45,46.02 38.61,45.52 C37.77,45.01 17.62,43.54 12.07,52.07 C6.52,60.6 5.26,76.14 4.74,82.99 C4.22,89.84 4.22,94.36 4.22,94.36 L72.59,97.33 L125.2,94.62 C125.2,94.62 124.71,73.48 124.58,67.92 C124.45,62.36 124.29,53.13 121.32,50.81 C118.35,48.49 116.54,49 111.37,48.87 C106.2,48.74 40.63,48.3 40.63,48.3 Z" fill="#6BA4AB"/>
  <path d="M4.24,93.32 L125.32,93.77 C125.32,93.77 125.77,109.44 125.77,110.89 C125.77,112.34 125.32,114.02 123.08,114.14 C120.84,114.25 25.05,114.92 25.05,114.92 L4.68,113.91 C4.68,113.91 2.33,113.01 1.77,111 C1.21,108.99 2.44,98.47 2.44,98.47 L4.24,93.32 Z" fill="#E0E0E0"/>
  <path d="M1.73,105.73 C1.73,105.73 4.84,106 5.38,105.12 C6.41,103.45 6.87,95.73 6.06,94.85 C5.54,94.28 3.74,94.53 3.74,94.53 C3.74,94.53 2.65,96.9 2.14,99.99 C1.6,103.3 1.73,105.73 1.73,105.73 Z" fill="#FF8D02"/>
  <path d="M31.94,114.93 C31.94,114.93 32.33,111.3 31.66,108.06 C30.98,104.82 28.51,97.63 18.37,97.5 C9.04,97.38 5.46,104.87 4.79,108.58 C4.21,111.79 4.7,113.91 4.7,113.91 C4.7,113.91 9.38,114.66 18.17,115 C26.96,115.34 31.94,114.93 31.94,114.93 Z" fill="#868486"/>
  <path d="M85.76,114.52 C85.76,114.52 85.89,108.27 87.49,105.08 C89.7,100.67 93.12,98.03 99.61,98.03 C106.1,98.03 110.1,101.84 111.61,104.49 C114.21,109.05 113.37,114.19 113.37,114.19 L85.76,114.52 Z" fill="#868486"/>
  <path d="M6.44,112.82 C6.51,117.38 10.15,123.96 18.08,124.01 C26.01,124.06 30.12,117.99 29.87,111.77 C29.62,105.45 24.7,100.98 17.63,101.19 C11,101.37 6.34,106.49 6.44,112.82 Z" fill="#4E433D"/>
  <path d="M11.95,112.43 C11.99,114.84 13.94,118.3 18.2,118.33 C22.46,118.36 24.52,115.34 24.39,112.06 C24.25,108.73 21.53,106.24 17.96,106.29 C14.41,106.35 11.9,109.1 11.95,112.43 Z" fill="#B2B1B2"/>
  <path d="M88.17,112.9 C88.24,117.43 91.8,123.95 99.56,124 C107.32,124.05 111.34,118.03 111.1,111.85 C110.85,105.58 106.04,101.15 99.12,101.35 C92.64,101.53 88.08,106.62 88.17,112.9 Z" fill="#4E433D"/>
  <path d="M93.35,112.54 C93.39,114.95 95.34,118.41 99.6,118.44 C103.86,118.47 105.92,115.45 105.79,112.17 C105.65,108.84 102.93,106.35 99.36,106.4 C95.8,106.45 93.3,109.2 93.35,112.54 Z" fill="#B2B1B2"/>
  <path d="M52.99,88.49 C52.99,88.49 114.2,88.61 116.11,88.49 C118.02,88.37 120.53,85.62 120.65,81.68 C120.77,77.74 120.17,61.12 119.93,59.21 C119.69,57.3 118.51,53.47 112.64,53.47 C107.98,53.47 22.5,52.99 20.35,52.99 C18.2,52.99 14.99,54.26 13.56,57.72 C12.13,61.18 9.5,67.55 8.87,74.73 C8.23,82.11 8.28,86.1 8.76,88.01 C9.24,89.92 9.72,92.07 14.14,92.07 C17.73,92.07 34.82,92.07 34.82,92.07 L35.07,114.81 L52.98,114.73 L52.99,88.49 Z" fill="#454C52"/>
  <path d="M125.19,92.74 C125.19,92.74 122.68,92.33 122.05,93.7 C121.42,95.07 121.29,104.23 122.23,104.63 C123.17,105.03 125.61,104.72 125.61,104.72 C125.61,104.72 125.69,101.1 125.5,98.47 C125.25,94.98 125.19,92.74 125.19,92.74 Z" fill="#FF2A23"/>
  <path d="M118.87,93.74 C118.87,93.74 118.86,93.74 118.87,93.74 L112.02,93.7 C111.33,93.7 110.77,93.13 110.78,92.44 C110.78,91.75 111.34,91.2 112.03,91.2 C112.03,91.2 112.03,91.2 112.04,91.2 L118.88,91.24 C119.57,91.24 120.13,91.81 120.12,92.5 C120.11,93.18 119.56,93.74 118.87,93.74 Z" fill="#454C52"/>
  <path d="M118.78,98.25 C118.78,98.25 118.78,98.25 118.78,98.25 L111.93,98.21 C111.24,98.21 110.68,97.64 110.69,96.95 C110.69,96.26 111.25,95.71 111.94,95.71 C111.94,95.71 111.94,95.71 111.95,95.71 L118.79,95.75 C119.48,95.75 120.04,96.32 120.03,97.01 C120.03,97.69 119.47,98.25 118.78,98.25 Z" fill="#454C52"/>
  <path d="M118.74,102.78 C118.73,102.78 118.73,102.78 118.74,102.78 L111.89,102.74 C111.2,102.74 110.64,102.17 110.65,101.48 C110.65,100.79 111.21,100.24 111.9,100.24 C111.9,100.24 111.9,100.24 111.91,100.24 L118.75,100.28 C119.44,100.28 120,100.85 119.99,101.54 C119.98,102.23 119.42,102.78 118.74,102.78 Z" fill="#454C52"/>
  <path d="M34.54,58.98 C34.54,58.98 19.52,58.98 18.31,59.07 C17.1,59.16 15.92,60.64 14.88,64.26 C13.78,68.07 11.82,75.3 12.28,84.29 C12.37,85.96 13.95,86.42 15.25,86.42 C16.55,86.42 34.63,86.42 34.63,86.42 L34.54,58.98 Z" fill="#AFE3FB"/>
  <path d="M18.22,77.81 L17.94,89.49 C17.94,89.49 22.85,90.42 23.69,89.12 C24.52,87.82 24.53,79.67 23.88,78.64 C22.58,76.6 18.22,77.81 18.22,77.81 Z" fill="#868486"/>
  <path d="M38.06,61.86 L49.93,61.86 L49.93,111.56 L38.16,111.56 C38.16,111.56 38.06,61.49 38.06,61.86 Z" fill="#AFE3FB"/>
  <path d="M53.64,82.44 L53.64,59.17 L84.24,59.17 L84.24,82.35 Z" fill="#AFE3FB"/>
  <path d="M87.95,59.26 L87.95,82.26 C87.95,82.26 110.95,82.26 113.54,82.26 C116.13,82.26 117.08,80.71 117.36,77.93 C117.64,75.15 117.32,64.63 117.07,62.7 C116.79,60.57 115.41,59.5 112.97,59.39 C110.41,59.27 88.05,59.17 87.95,59.26 Z" fill="#AFE3FB"/>
</svg>
